svgs/duotone/police-box.svg

<svg xmlns="http://www.w3.org/2000/svg" viewBox="0 0 384 512"><!-- Font Awesome Pro 5.15.4 by @fontawesome - https://fontawesome.com License - https://fontawesome.com/license (Commercial License) --><defs><style>.fa-secondary{opacity:.4}</style></defs><path d="M208,200a8.00039,8.00039,0,0,0,8,8h24V176H208Zm80,0V176H256v32h24A8.00039,8.00039,0,0,0,288,200Zm-80-40h32V128H216a8.00039,8.00039,0,0,0-8,8Zm80-24a8.00039,8.00039,0,0,0-8-8H256v32h32ZM104,208h24V176H96v24A8.00039,8.00039,0,0,0,104,208Zm24-80H104a8.00039,8.00039,0,0,0-8,8v24h32Zm48,72V176H144v32h24A8.00039,8.00039,0,0,0,176,200Zm0-64a8.00039,8.00039,0,0,0-8-8H144v32h32ZM208,16a16,16,0,0,0-32,0V32h32ZM368,464H16A15.99954,15.99954,0,0,0,0,480v16a16.00079,16.00079,0,0,0,16,16H368a16.00079,16.00079,0,0,0,16-16V480A15.99954,15.99954,0,0,0,368,464Z" class="fa-secondary"/><path d="M352,464V88a23.99993,23.99993,0,0,0-24-24h-8.02344V48a15.99954,15.99954,0,0,0-16-16H80A15.99954,15.99954,0,0,0,64,48V64H56A23.99993,23.99993,0,0,0,32,88V464ZM96,136a8.00039,8.00039,0,0,1,8-8h24v32H96Zm0,40h32v32H104a8.00039,8.00039,0,0,1-8-8Zm80,136a8.00039,8.00039,0,0,1-8,8H104a8.00039,8.00039,0,0,1-8-8V248a8.00039,8.00039,0,0,1,8-8h64a8.00039,8.00039,0,0,1,8,8Zm0-112a8.00039,8.00039,0,0,1-8,8H144V176h32Zm0-40H144V128h24a8.00039,8.00039,0,0,1,8,8Zm64,48H216a8.00039,8.00039,0,0,1-8-8V176h32Zm0-48H208V136a8.00039,8.00039,0,0,1,8-8h24Zm48,40a8.00039,8.00039,0,0,1-8,8H256V176h32Zm0-40H256V128h24a8.00039,8.00039,0,0,1,8,8Z" class="fa-primary"/></svg>

<svg xmlns="http://www.w3.org/2000/svg" viewBox="0 0 384 512"><!--! Font Awesome Pro 6.7.2 by @fontawesome - https://fontawesome.com License - https://fontawesome.com/license (Commercial License) Copyright 2024 Fonticons, Inc. --><defs><style>.fa-secondary{opacity:.4}</style></defs><path class="fa-secondary" d="M0 488c0 13.3 10.7 24 24 24l336 0c13.3 0 24-10.7 24-24s-10.7-24-24-24l-8 0L32 464l-8 0c-13.3 0-24 10.7-24 24zM96 136l0 24 32 0 0-32-24 0c-4.4 0-8 3.6-8 8zm0 40l0 24c0 4.4 3.6 8 8 8l24 0 0-32-32 0zm48-48l0 32 32 0 0-24c0-4.4-3.6-8-8-8l-24 0zm0 48l0 32 24 0c4.4 0 8-3.6 8-8l0-24-32 0zM176 16l0 16 32 0 0-16c0-8.8-7.2-16-16-16s-16 7.2-16 16zm32 120l0 24 32 0 0-32-24 0c-4.4 0-8 3.6-8 8zm0 40l0 24c0 4.4 3.6 8 8 8l24 0 0-32-32 0zm48-48l0 32 32 0 0-24c0-4.4-3.6-8-8-8l-24 0zm0 48l0 32 24 0c4.4 0 8-3.6 8-8l0-24-32 0z"/><path class="fa-primary" d="M96 32C78.3 32 64 46.3 64 64C46.3 64 32 78.3 32 96l0 368 320 0 0-368c0-17.7-14.3-32-32-32c0-17.7-14.3-32-32-32L96 32zm0 104c0-4.4 3.6-8 8-8l24 0 0 32-32 0 0-24zm0 40l32 0 0 32-24 0c-4.4 0-8-3.6-8-8l0-24zm72-48c4.4 0 8 3.6 8 8l0 24-32 0 0-32 24 0zm-24 48l32 0 0 24c0 4.4-3.6 8-8 8l-24 0 0-32zm72-48l24 0 0 32-32 0 0-24c0-4.4 3.6-8 8-8zm24 48l0 32-24 0c-4.4 0-8-3.6-8-8l0-24 32 0zm16-48l24 0c4.4 0 8 3.6 8 8l0 24-32 0 0-32zm32 48l0 24c0 4.4-3.6 8-8 8l-24 0 0-32 32 0zM96 256c0-8.8 7.2-16 16-16l48 0c8.8 0 16 7.2 16 16l0 48c0 8.8-7.2 16-16 16l-48 0c-8.8 0-16-7.2-16-16l0-48z"/></svg>
